assets/symbols/mulberry/shallow.svg

<svg height="850.394" viewBox="0 0 850.394 850.394" width="850.394" xmlns="http://www.w3.org/2000/svg"><path d="m613.08 338.42h102.94v84.85l-577.97 235.57v-320.42h2.99z" fill="#a8d7f4"/><g fill="none"><g stroke="#231f20" stroke-width="21"><path d="m85.15 275.53h52.9v383.31l577.97-235.57v-147.24h48.22m-623.2 62.39h574.97m-102.93 78.23v-196.39"/><path d="m664.89 364.84-51.86 66.4-51.81-66.27"/></g><path d="m0 0h850.394v850.394h-850.394z"/></g></svg>

<svg xmlns="http://www.w3.org/2000/svg" width="850.394" height="850.394" viewBox="0 0 850.394 850.394" overflow="visible"><path fill="#a8d7f4" d="M613.08 338.42H716.02v84.85L138.05 658.84V338.42h2.99z"/><g fill="none" stroke="#231f20" stroke-width="21"><path d="M85.15 275.53h52.9v383.31l577.97-235.57V276.03h48.22M141.04 338.42h574.97M613.08 416.65V220.26"/><path d="M664.89 364.84l-51.86 66.4-51.81-66.27"/></g><path fill="none" d="M0 0h850.394v850.394H0z"/></svg>
